icon-themes/sifr_svg/cmd/lc_freeline_unfilled.svg

<svg viewBox="0 0 24 24" xmlns="http://www.w3.org/2000/svg"><path d="m12.800781 2.1328125-3.2011716 3.2011719c.0517845 1.6723622 4.7154526 6.3984376 6.4003906 6.3984376l7.466797-7.4648439v-2.1347656zm-5.3339841 5.3339844-1.0664063 5.3339841-4.2675781 4.244141 4.2675781.011719 2.1328125-2.123047 5.3339849-1.066406c-1.717782 0-6.4003895-4.6826221-6.4003911-6.4003911zm10.9492191 7.2480471c-.124583-.00169-.24961.003994-.373047.017578-.49375.054336-.974032.221868-1.408203.427734-.868343.411733-1.693282 1.014156-2.527344 1.623047-1.668122 1.217783-3.398767 2.36126-4.4746095 2.369141l-6.4414063.046875a1.0667733 1.0667733 0 1 0 .0175782 2.134765l6.4414062-.048828c2.2295874-.01633 4.0695174-1.578155 5.7148434-2.779297.822663-.600569 1.59142-1.136257 2.185547-1.417968.594127-.28171.874013-.278397 1.033203-.199219.105142.052299.082871.050017.095704.076172.012842.026154.041902.123622.042968.314453.002134.381661-.136671 1.049565-.203125 1.820312-.066453.770748-.041167 1.734688.544922 2.597657.586092.862968 1.632704 1.449196 3.126953 1.748046a1.0667733 1.0667733 0 1 0 .416016-2.091796c-1.172417-.234484-1.59235-.581129-1.777344-.853516s-.232797-.646121-.183594-1.216797c.049206-.570676.213292-1.245749.208985-2.015625-.002134-.384939-.051657-.814287-.261719-1.242187-.210064-.427901-.597004-.814371-1.060547-1.044922-.36682-.182449-.74344-.260555-1.117187-.265625z" fill="#555753"/></svg>

<svg xmlns="http://www.w3.org/2000/svg" viewBox="0 0 24 24">
 <path
     style="fill:#555753"
     d="M 12.800781 2.1328125 L 9.5996094 5.3339844 C 9.6513939 7.0063466 14.315062 11.732422 16 11.732422 L 23.466797 4.2675781 L 23.466797 2.1328125 L 12.800781 2.1328125 z M 7.4667969 7.4667969 L 6.4003906 12.800781 L 2.1328125 17.044922 L 6.4003906 17.056641 L 8.5332031 14.933594 L 13.867188 13.867188 C 12.149406 13.867188 7.4667985 9.1845659 7.4667969 7.4667969 z M 18.416016 14.714844 C 18.291433 14.713154 18.166406 14.718838 18.042969 14.732422 C 17.549219 14.786758 17.068937 14.95429 16.634766 15.160156 C 15.766423 15.571889 14.941484 16.174312 14.107422 16.783203 C 12.4393 18.000986 10.708655 19.144463 9.6328125 19.152344 L 3.1914062 19.199219 A 1.0667733 1.0667733 0 1 0 3.2089844 21.333984 L 9.6503906 21.285156 C 11.879978 21.268826 13.719908 19.707001 15.365234 18.505859 C 16.187897 17.90529 16.956654 17.369602 17.550781 17.087891 C 18.144908 16.806181 18.424794 16.809494 18.583984 16.888672 C 18.689126 16.940971 18.666855 16.938689 18.679688 16.964844 C 18.69253 16.990998 18.72159 17.088466 18.722656 17.279297 C 18.72479 17.660958 18.585985 18.328862 18.519531 19.099609 C 18.453078 19.870357 18.478364 20.834297 19.064453 21.697266 C 19.650545 22.560234 20.697157 23.146462 22.191406 23.445312 A 1.0667733 1.0667733 0 1 0 22.607422 21.353516 C 21.435005 21.119032 21.015072 20.772387 20.830078 20.5 C 20.645084 20.227613 20.597281 19.853879 20.646484 19.283203 C 20.69569 18.712527 20.859776 18.037454 20.855469 17.267578 C 20.853335 16.882639 20.803812 16.453291 20.59375 16.025391 C 20.383686 15.59749 19.996746 15.21102 19.533203 14.980469 C 19.166383 14.79802 18.789763 14.719914 18.416016 14.714844 z "
     />
 </svg>
